src/assets/skills/typescript.svg

<svg height="100pt" viewBox="0 0 100 100" width="100pt" xmlns="http://www.w3.org/2000/svg"><path d="m0 50v50h100v-100h-100z" fill="#007acc"/><g fill="#fff"><path d="m72.073 43.349c2.2.55 3.875 1.527 5.415 3.121.798.852 1.981 2.403 2.076 2.779.03.108-3.738 2.633-6.019 4.051-.084.054-.414-.303-.782-.852-1.118-1.624-2.284-2.325-4.07-2.447-2.628-.181-4.317 1.194-4.301 3.489-.002.04-.002.086-.002.135 0 .544.138 1.058.378 1.508l-.008-.017c.577 1.194 1.654 1.914 5.015 3.367 6.203 2.671 8.855 4.427 10.503 6.928 1.841 2.79 2.255 7.245 1.004 10.558-1.372 3.602-4.782 6.048-9.58 6.855-1.483.262-5.001.224-6.595-.065-3.478-.62-6.777-2.339-8.812-4.593-.798-.877-2.352-3.174-2.254-3.337.04-.057.397-.279.792-.509.39-.219 1.843-1.061 3.218-1.859l2.49-1.442.522.771c.728 1.112 2.32 2.639 3.283 3.147 2.763 1.459 6.558 1.253 8.425-.424.696-.588 1.134-1.462 1.134-2.436 0-.057-.003-.114-.005-.168v.008c0-1.004-.128-1.442-.65-2.2-.671-.961-2.046-1.767-5.951-3.464-4.468-1.924-6.39-3.118-8.152-5.015-1.061-1.204-1.878-2.655-2.357-4.249l-.022-.081c-.327-1.223-.411-4.29-.151-5.524.92-4.319 4.179-7.326 8.879-8.219 1.527-.289 5.075-.181 6.571.192z"/><path d="m51.743 46.965.03 3.548h-11.278v32.029h-7.975v-32.029h-11.267v-3.478c0-1.927.041-3.537.095-3.572.043-.057 6.904-.087 15.218-.073l15.136.043z"/></g></svg>

<?xml version="1.0" encoding="UTF-8" standalone="no"?><!-- Generator: Gravit.io --><svg xmlns="http://www.w3.org/2000/svg" xmlns:xlink="http://www.w3.org/1999/xlink" style="isolation:isolate" viewBox="0 0 100 100" width="100pt" height="100pt"><path d=" M 0 50 L 0 100 L 100 100 L 100 0 L 0 0 L 0 50 Z " fill="rgb(0,122,204)"/><g><path d=" M 72.073 43.349 C 74.273 43.899 75.948 44.876 77.488 46.47 C 78.286 47.322 79.469 48.873 79.564 49.249 C 79.594 49.357 75.826 51.882 73.545 53.3 C 73.461 53.354 73.131 52.997 72.763 52.448 C 71.645 50.824 70.479 50.123 68.693 50.001 C 66.065 49.82 64.376 51.195 64.392 53.49 C 64.39 53.53 64.39 53.576 64.39 53.625 C 64.39 54.169 64.528 54.683 64.768 55.133 L 64.76 55.116 C 65.337 56.31 66.414 57.03 69.775 58.483 C 75.978 61.154 78.63 62.91 80.278 65.411 C 82.119 68.201 82.533 72.656 81.282 75.969 C 79.91 79.571 76.5 82.017 71.702 82.824 C 70.219 83.086 66.701 83.048 65.107 82.759 C 61.629 82.139 58.33 80.42 56.295 78.166 C 55.497 77.289 53.943 74.992 54.041 74.829 C 54.081 74.772 54.438 74.55 54.833 74.32 C 55.223 74.101 56.676 73.259 58.051 72.461 L 60.541 71.019 L 61.063 71.79 C 61.791 72.902 63.383 74.429 64.346 74.937 C 67.109 76.396 70.904 76.19 72.771 74.513 C 73.467 73.925 73.905 73.051 73.905 72.077 C 73.905 72.02 73.902 71.963 73.9 71.909 L 73.9 71.917 C 73.9 70.913 73.772 70.475 73.25 69.717 C 72.579 68.756 71.204 67.95 67.299 66.253 C 62.831 64.329 60.909 63.135 59.147 61.238 C 58.086 60.034 57.269 58.583 56.79 56.989 L 56.768 56.908 C 56.441 55.685 56.357 52.618 56.617 51.384 C 57.537 47.065 60.796 44.058 65.496 43.165 C 67.023 42.876 70.571 42.984 72.067 43.357 L 72.073 43.349 Z " fill="rgb(255,255,255)"/><path d=" M 51.743 46.965 L 51.773 50.513 L 40.495 50.513 L 40.495 82.542 L 32.52 82.542 L 32.52 50.513 L 21.253 50.513 L 21.253 47.035 C 21.253 45.108 21.294 43.498 21.348 43.463 C 21.391 43.406 28.252 43.376 36.566 43.39 L 51.702 43.433 L 51.743 46.965 Z " fill="rgb(255,255,255)"/></g></svg>
